!!!COM:	la Rue, Pierre de
!!!CDT:	~1452///-1518/11/20
!!!OPR:	Missa Sine nomine I
!!!ONM:	2
!!!OTL:	Gloria
!!!AGN:	Mass; Gloria
!!!SCT:	Rue1028b
!!!SCA:	Rue1028b
!!!voices-OPR:	4
!!!voices:	4
**kern	**kern	**kern	**kern
*staff4	*staff3	*staff2	*staff1
*Ivox	*Ivox	*Ivox	*Ivox
*I"Bassus	*I"Tenor	*I"Contra	*I"Discantus
*I'B	*I'T	*I'C	*I'D
*>[A,B]	*>[A,B]	*>[A,B]	*>[A,B]
*>A	*>A	*>A	*>A
*clefF4	*clefGv2	*clefGv2	*clefG2
*k[b-]	*k[b-]	*k[b-]	*k[b-]
*M2/1	*M2/1	*M2/1	*M2/1
*met(C|)	*met(C|)	*met(C|)	*met(C|)
!!section: Et in terra pax
!!!OMD: Et in terra pax
=1-	=1-	=1-	=1-
0r	0r	1.G	0r
.	.	2G/	.
=2	=2	=2	=2
0r	0r	1B-	1.g
.	.	1c	.
.	.	.	2g/
=3	=3	=3	=3
0r	0r	1d	1b-
.	.	2r	1cc
.	.	2c\	.
=4	=4	=4	=4
0r	0r	1f	2dd\
.	.	.	2dd\
.	.	1e	2dd\
.	.	.	2cc\
=5	=5	=5	=5
0r	0r	2d\	2dd\
.	.	2.f\	2a/
.	.	.	2.cc\
.	.	4e\	.
.	.	4c\	.
.	.	4d\	4b-\
=6	=6	=6	=6
0r	0r	4e\	4g/
.	.	4f\	4a/
.	.	2e\	4b-\
.	.	.	4cc\
.	.	1d	2b-\
.	.	.	[2a/
=7	=7	=7	=7
0r	0r	2c\	2a/]
.	.	2B-\	2g/
.	.	1A	2g/
.	.	.	2f#i/
=8	=8	=8	=8
1r	1r	0G	0g
2r	2r	.	.
2G\	2G/	.	.
=9	=9	=9	=9
1G	1B-	0r	0r
1E	1c	.	.
=10	=10	=10	=10
1D	1d	1r	1r
2r	2r	2r	2r
2G\	2B-\	2d\	2g/
=11	=11	=11	=11
2G\	2B-\	2d\	2b-\
2G\	2B-\	2d\	2b-\
2E\	2G/	2g\	2cc\
2E\	2G/	2g\	2cc\
=12	=12	=12	=12
1D	1A	1f	1dd
2r	2r	2r	2r
[2G\	2G/	2d\	[2g/
=13	=13	=13	=13
2G\]	2B-\	2d\	2g/]
2G\	2B-\	2d\	2g/
2E\	1c	1G	2g/
2E\	.	.	2g/
=14	=14	=14	=14
2D\	[0d	2A/	2f/
2D\	.	1f	2a/
2.BB-/	.	.	2b-\
.	.	2f\	[2dd\
4AA/	.	.	.
=15	=15	=15	=15
2GG/	0d_	2.g\	4dd\]
.	.	.	4cc\
2.G\	.	.	4b-\
.	.	4f\	4a/
.	.	4d\	2g/
4F\	.	4e\	.
2D\	.	[2f\	2f/
=16	=16	=16	=16
2BB-/	0d]	2f\]	1b-
2GG/	.	2.g\	.
1D	.	.	1a
.	.	4f#i\	.
.	.	2f#i\	.
=17	=17	=17	=17
2GG/	1r	0g	0g
2.G\	.	.	.
.	2r	.	.
4G\	.	.	.
2G\	[2d\	.	.
=18	=18	=18	=18
2G\	4d\]	0r	0r
.	4d\	.	.
2G\	2d\	.	.
2G\	2d\	.	.
[2G\	2d\	.	.
=19	=19	=19	=19
2G\]	2d\	2r	0r
1D	1d	2d\	.
.	.	2f\	.
2D\	[2A/	2f\	.
=20	=20	=20	=20
2F\	2A/]	2.f\	1r
2F\	2A/	.	.
.	.	8e\L	.
.	.	8d\J	.
2.F\	2c\	1c	2r
.	2c\	.	2a/
8E\L	.	.	.
8D\J	.	.	.
=21	=21	=21	=21
0C	2.c\	0g	2cc\
.	.	.	2cc\
.	8B-/L	.	.
.	8A/J	.	.
.	2G/	.	2.cc\
.	[2c\	.	.
.	.	.	8b-/L
.	.	.	8a/J
=22	=22	=22	=22
1C	4c\]	1e	2g/
.	4B-\	.	.
.	4A/	.	2.cc\
.	4G/	.	.
[1F	2.A/	[1f	.
.	.	.	4b-\
.	.	.	4a/
.	4B-\	.	4g/
=23	=23	=23	=23
2F\]	4c\	2f\]	2a/
.	4B-\	.	.
2G\	4A/	2e\	1g
.	4G/	.	.
1D	1A	2.d\	.
.	.	.	2f#i/
.	.	4c\	.
=24	=24	=24	=24
1GG	1G	0d	0g
2r	2r	.	.
[2G\	[2B-\	.	.
=25	=25	=25	=25
4G\]	4B-\]	0r	0r
4G\	4B-\	.	.
2G\	2B-\	.	.
2E\	2c\	.	.
2D\	[2d\	.	.
=26	=26	=26	=26
1F	2d\]	0r	0r
.	2d\	.	.
2E\	2.d\	.	.
2E\	.	.	.
.	4c#i\	.	.
=27	=27	=27	=27
1D	1d	1f	2r
.	.	.	2a/
1r	1r	2g\	2b-\
.	.	2g\	2b-\
=28	=28	=28	=28
0r	0r	2f\	2a/
.	.	2d\	2dd\
.	.	2.f\	2.dd\
.	.	4e\	4cc#i\
=29	=29	=29	=29
1D	1r	1d	2dd\
.	.	.	2dd\
2D\	1d	1f	2dd\
2D\	.	.	2dd\
=30	=30	=30	=30
0D	2d\	2f\	1dd
.	2d\	2f\	.
.	1d	1f	1a
=31	=31	=31	=31
0AA	0c	[0e	2r
.	.	.	2.a/
.	.	.	4b-\
.	.	.	2cc\
=32	=32	=32	=32
2r	1c	0e]	2a/
2AA/	.	.	2.cc\
2.C/	2A/	.	.
.	.	.	4b-\
.	[2c\	.	2a/
4D\	.	.	.
=33	=33	=33	=33
2E\	4c\]	2.e\	2g/
.	4B-\	.	.
2AA/	2A/	.	2a/
.	.	4e\	.
2r	2G/	2e\	2r
[2A\	2A/	2e\	2cc\
=34	=34	=34	=34
2A\]	2c\	2c\	2a/
1F	2A/	1f	2.cc\
.	1c	.	.
.	.	.	4b-\
2F\	.	2f\	[2a/
=35	=35	=35	=35
1G	1B-	1d	2a/]
.	.	.	2g/
1D	1A	[1f	[1a
=36	=36	=36	=36
2r	2r	2f\]	2a/]
2D\	2A/	2d\	2f/
2D\	2A/	1d	1f
2D\	2A/	.	.
=37	=37	=37	=37
1BB-	1B-	2r	2r
.	.	2d\	2f/
1D	1A	2d\	2f/
.	.	2d\	2f/
=38	=38	=38	=38
2r	2r	1c	1e
2AA/	1A	.	.
1D	.	1d	1d
.	2A/	.	.
=39	=39	=39	=39
1BB-	1B-	2r	2r
.	.	1d	2f/
1D	1A	.	1f
.	.	2d\	.
=40	=40	=40	=40
2r	2r	1c	1e
2AA/	2A/	.	.
1D	2B-\	1d	1d
.	2A/	.	.
=41	=41	=41	=41
2.GG/	1B-	2r	2r
.	.	2d\	2d/
8AA/L	.	.	.
8BB-/J	.	.	.
2C/	[1A	2c\	2e/
2D\	.	2A/	2d/
=42	=42	=42	=42
4C/	2A/]	1c	4e/
4D\	.	.	4f/
4E\	1G	.	4g/
4F\	.	.	4a/
2G\	.	2B-\	4b-\
.	.	.	4cc\
2F\	[2c\	[2f\	[2a/
=43	=43	=43	=43
1G	2c\]	4f\]	2a/]
.	.	4e\	.
.	2B-\	2.d\	2.g/
1D	1A	.	.
.	.	4c\	4f#i/
.	.	2d\	2f#i/
=44	=44	=44	=44
0GGl	0Gl	0B-l	0gl
!!LO:LB:i:g=z
=45||	=45||	=45||	=45||
*>B	*>B	*>B	*>B
*clefF4	*clefGv2	*clefGv2	*clefG2
*k[b-]	*k[b-]	*k[b-]	*k[b-]
*M2/1	*M2/1	*M2/1	*M2/1
*met(C|)	*met(C|)	*met(C|)	*met(C|)
!!section: Qui tollis
!!!OMD: Qui tollis
1G	1r	1g	1b-
2G\	1d	2g\	2b-\
[2G\	.	[2g\	[2b-\
=46	=46	=46	=46
2G\]	2d\	2g\]	2b-\]
2G\	1d	2g\	2b-\
2G\	.	2g\	2b-\
2G\	2d\	2g\	2b-\
=47	=47	=47	=47
2.G\	2d\	1G	2.b-\
.	2d\	.	.
8F\L	.	.	8a/L
8E\J	.	.	8g/J
1D	2.d\	1A	1f
.	8c\L	.	.
.	8B-\J	.	.
=48	=48	=48	=48
2r	1A	2r	2r
2D\	.	1d	2f/
2F\	2r	.	2a/
2F\	2A/	[2c\	2a/
=49	=49	=49	=49
1C	2c\	4c\]	2g/
.	.	4c\	.
.	2c\	2c\	2.cc\
1E	1c	1G	.
.	.	.	4b-\
.	.	.	4a/
.	.	.	4g/
=50	=50	=50	=50
0D	2.d\	1A	0f
.	8c\L	.	.
.	8B-\J	.	.
.	1A	1d	.
=51	=51	=51	=51
2r	0G	2r	0r
2GG/	.	1d	.
2GG/	.	.	.
2GG/	.	2d\	.
=52	=52	=52	=52
2BB-/	2r	2d\	0r
2BB-/	2G/	2d\	.
2C/	2G/	2e\	.
2C/	2G/	2e\	.
=53	=53	=53	=53
2D\	2B-\	4d\	2r
.	.	4c\	.
1E-i	2B-\	4B-\	2g/
.	.	4A/	.
.	2c\	2.G/	2g/
4D\	2c\	.	2g/
4C/	.	4F/	.
=54	=54	=54	=54
2BB-/	1d	4G/	2b-\
.	.	4F/	.
2D\	.	1B-	2b-\
1C	1r	.	2cc\
.	.	2A/	2cc\
=55	=55	=55	=55
0BB-	2.d\	1B-	1dd
.	4d\	.	.
.	2d\	1r	2r
.	[2B-\	.	[2dd\
=56	=56	=56	=56
2r	4B-\]	2.B-\	4dd\]
.	4c\	.	4dd\
2.BB-/	2d\	.	2dd\
.	.	4c\	.
.	2d\	2d\	2.b-\
4BB-/	.	.	.
2BB-/	[2B-\	2d\	.
.	.	.	4cc\
=57	=57	=57	=57
2BB-/	4B-\]	2B-\	2dd\
.	4c\	.	.
2BB-/	1d	2B-\	2b-\
2D\	.	2f\	4b-\
.	.	.	4cc\
2D\	2A/	2f\	[2dd\
=58	=58	=58	=58
2.D\	[0A	2.f\	2dd\]
.	.	.	2dd\
4C/	.	4e\	.
2D\	.	4f\	4ee\
.	.	4d\	2dd\
2AA/	.	2e\	.
.	.	.	4cc#i\
=59	=59	=59	=59
0D	0A]	0d	0dd
=60	=60	=60	=60
1r	1r	1B-	1d
2r	2r	2A/	2f/
2GG/	2D/	2G/	2g/
=61	=61	=61	=61
2BB-/	4D/	0r	0r
.	4E/	.	.
2D\	4F/	.	.
.	4G/	.	.
4C/	2A/	.	.
4BB-/	.	.	.
4AA/	[2G/	.	.
4GG/	.	.	.
=62	=62	=62	=62
1AA	2G/]	2r	2r
.	2F#i/	2c\	2a/
1GG	1G	2B-\	2.b-\
.	.	[2d\	.
.	.	.	4a/
=63	=63	=63	=63
0r	0r	2d\]	4a/
.	.	.	4g/
.	.	4c\	1g
.	.	4B-\	.
.	.	1A	.
.	.	.	2f#i/
=64	=64	=64	=64
2.G\	1B-	2G/	2g/
.	.	2d\	2g/
4G\	.	.	.
2G\	2B-\	2d\	2g/
2G\	2B-\	2e\	2g/
=65	=65	=65	=65
2F\	2A/	2f\	2a/
2G\	1G	2d\	2b-\
1C	.	2e\	2cc\
.	2G/	2e\	2cc\
=66	=66	=66	=66
1C	1c	1e	1g
2r	1G	2r	2r
2G\	.	2e\	2g/
=67	=67	=67	=67
2F\	2r	2f\	2a/
2G\	2G/	2d\	2b-\
2C/	2A/	2c\	2cc\
2C/	2G/	2c\	2cc\
=68	=68	=68	=68
[0C	2c\	0e	1g
.	2c\	.	.
.	1G	.	1r
=69	=69	=69	=69
1C]	1r	1.e	0cc
1C	1c	.	.
.	.	2e\	.
=70	=70	=70	=70
2F\	1d	2f\	2a/
1G	.	2.d\	1b-
.	2B-\	.	.
.	.	4e\	.
2F\	[2c\	2f\	2a/
=71	=71	=71	=71
2C/	2c\]	2e\	2g/
2G\	2B-\	2d\	2g/
1D	2A/	1d	1f
.	2A/	.	.
=72	=72	=72	=72
2r	2G/	2r	2r
2D\	1A	2d\	2f/
1E	.	1c	2g/
.	2G/	.	2g/
=73	=73	=73	=73
1D	1A	1.d	0f
1D	1A	.	.
.	.	4c\	.
.	.	4B-\	.
=74	=74	=74	=74
2r	2r	0d	0r
2G\	2G/	.	.
2G\	2B-\	.	.
2G\	2B-\	.	.
=75	=75	=75	=75
2E\	2c\	0r	0r
2E\	2c\	.	.
2D\	1d	.	.
[2G\	.	.	.
=76	=76	=76	=76
4G\]	2r	0r	0r
4A\	.	.	.
2B-\	2.G/	.	.
2.G\	.	.	.
.	4A/	.	.
.	2B-\	.	.
4A\	.	.	.
=77	=77	=77	=77
2B-\	4G/	0r	0r
.	4A/	.	.
4G\	2B-\	.	.
4A\	.	.	.
2B-\	4G/	.	.
.	4A/	.	.
4G\	4B-\	.	.
4A\	4c\	.	.
=78	=78	=78	=78
4B-\	2d\	0r	2r
4A\	.	.	.
4G\	2e\	.	2g/
4F\	.	.	.
1E	4e\	.	2.g/
.	2d\	.	.
.	4c#i\	.	4a/
=79	=79	=79	=79
0D	0d	1f	2b-\
.	.	.	1a
.	.	1f	.
.	.	.	2a/
=80	=80	=80	=80
0r	2r	2f\	1dd
.	2.G/	2.g\	.
.	.	.	2.g/
.	4A/	4f\	.
.	2B-\	[2d\	.
.	.	.	4a/
=81	=81	=81	=81
0r	2G/	2d\]	2b-\
.	2.c\	1e	2g/
.	.	.	2.cc\
.	4B-\	.	.
.	[2A/	2e\	.
.	.	.	4b-\
=82	=82	=82	=82
2.D\	2A/]	0f	1a
.	2A/	.	.
4E\	.	.	.
2F\	2.d\	.	2a/
2D\	.	.	[2dd\
.	4c\	.	.
=83	=83	=83	=83
2.G\	4B-\	2d\	4dd\]
.	4A/	.	4cc\
.	2G/	2.g\	4b-\
4F\	.	.	4a/
4E\	2.c\	.	2g/
4D\	.	4f\	.
2C/	.	4e\	[2cc\
.	4B-\	4d\	.
=84	=84	=84	=84
2.F\	4A/	2c\	4cc\]
.	4G/	.	4b-\
.	1F	2.f\	4a/
4E\	.	.	4g/
4D\	.	.	2.f/
4C/	.	4e\	.
2BB-/	2F/	4d\	.
.	.	4c\	4g/
=85	=85	=85	=85
2C/	2c\	2e\	2a/
2E-i\	4B-\	2c\	1g
.	4G/	.	.
1D	1A	1d	.
.	.	.	2f#i/
=86	=86	=86	=86
0GGl	0Gl	0dl	0gl
==	==	==	==
*-	*-	*-	*-
!!!RDF**kern: l=long note in original notation
!!!RDF**kern: i=editorial accidental
!!!ENC:	Chris Gage 06-10-2013
!!!END:	2013/08/04/
!!!EED:	Jesse Rodin
!!!EEV:	2013/08/05/
!!!ONB:	Translated from MusicXML and edited on 2013/08/05/ by Craig Sapp
!!muse2ps: T^@{OPR}^u^@{ONM}{. }@{OTL}^C^@{COM}^i2I150v85,85,85,150Q16
